dist/intermediate-svg/rub.svg

<?xml version="1.0" encoding="utf-8"?><svg width="12" height="12" fill="none" xmlns="http://www.w3.org/2000/svg" viewBox="0 0 12 12"><path d="M7.03434 9.11126H4.73352V11H3.4217V9.11126H2V8.0261H3.4217V7.08517H2V6.00687H3.4217V1H7.10989C8.18132 1 9.03068 1.27244 9.65797 1.81731C10.2853 2.36218 10.5989 3.09936 10.5989 4.02885C10.5989 5.00412 10.2967 5.75733 9.69231 6.28846C9.09249 6.81502 8.23855 7.08059 7.13049 7.08517H4.73352V8.0261H7.03434V9.11126ZM4.73352 6.00687H7.10989C7.8196 6.00687 8.35989 5.83974 8.73077 5.50549C9.10165 5.17125 9.28709 4.68361 9.28709 4.04258C9.28709 3.46108 9.09478 2.99176 8.71016 2.63462C8.32555 2.27289 7.80586 2.08974 7.1511 2.08516H4.73352V6.00687Z" fill="#333"/></svg>

<?xml version="1.0" encoding="utf-8"?><svg width="12" height="12" fill="none" xmlns="http://www.w3.org/2000/svg" viewBox="0 0 12 12"><path d="M7.034 9.111h-2.3V11H3.422V9.111H2V8.026h1.422v-.94H2v-1.08h1.422V1H7.11c1.071 0 1.92.272 2.548.817.627.545.94 1.282.94 2.212 0 .975-.301 1.728-.906 2.26-.6.526-1.453.792-2.562.796H4.734v.941h2.3v1.085zm-2.3-3.104H7.11c.71 0 1.25-.167 1.62-.502.372-.334.557-.821.557-1.462 0-.582-.192-1.051-.577-1.408-.384-.362-.904-.545-1.559-.55H4.734v3.922z" fill="#333"/></svg>
